images/salesforce.svg

<svg fill="none" height="71" viewBox="0 0 100 71" width="100" xmlns="http://www.w3.org/2000/svg"><path d="m38.8887 33.3814h-4.1172c.1078-.8062.5188-2.2062 2.1313-2.2062 1.0547 0 1.8703.5968 1.9859 2.2062zm21.3533-2.1687c-.0735 0-2.2047-.2766-2.2047 3.125s2.1297 3.125 2.2047 3.125c2.0312 0 2.2047-2.1156 2.2047-3.125 0-3.4-2.1344-3.125-2.2047-3.125zm-38.0033 3.7125c-.1713.1343-.3075.308-.397.5064-.0895.1983-.1297.4154-.1171.6327 0 .7468.325.9453.5141 1.1015.7343.5781 2.3547.3313 3.2703.1485v-2.6469c-.8313-.1672-2.6141-.3063-3.2703.2578zm77.7613-3.675c0 13.6844-12.5001 24.1235-25.8376 21.3173-2.8704 5.1562-11.0517 11.0547-20.6564 6.5047-6.4313 15.0079-27.7954 14.4032-33.408-.8078-18.70633 3.7328-27.94075-21.6205-11.76098-31.1377-5.42971-12.411 3.53748-27.1267 17.86108-27.1267 2.9786.00184997 5.917.68914 8.5874 2.00867 2.6705 1.31952 5.0015 3.23589 6.8126 5.60074 3.2344-3.34376 7.7188-5.43909 12.6798-5.43909 6.6157 0 12.3438 3.67502 15.4376 9.15158 14.5032-6.35625 30.2845 4.411 30.2845 19.9283zm-81.1801 4.9687c0-1.8375-1.8266-2.3703-2.7922-2.6828-.8235-.3297-2.0953-.5484-2.0953-1.3969 0-1.4781 2.6562-1.0406 3.9328-.3312 0 0 .1828.1109.2562-.0735.0375-.1093.3688-1.0281.4047-1.139.014-.0438.0104-.0912-.01-.1324-.0204-.0411-.056-.0727-.0993-.0879-1.9266-1.1922-6.3594-1.3297-6.3594 1.9843 0 1.9469 1.7953 2.4126 2.7937 2.6829.7375.2468 2.0578.4687 2.0578 1.3594 0 .625-.5515 1.1031-1.4328 1.1031-1.0707-.0018-2.1121-.3499-2.9687-.9922-.0735-.0359-.2219-.1109-.2579.1109l-.375 1.1672c-.0734.1469.036.1844.036.2203.2734.2188 1.6094 1.0297 3.5656 1.0297 2.0578 0 3.3438-1.1031 3.3438-2.8297zm5-6.6531c-1.5828 0-2.9156.4953-3.3438.8094-.0171.0118-.0317.027-.0428.0445-.0112.0176-.0188.0372-.0223.0577s-.0028.0416.0019.0618c.0048.0203.0135.0394.0257.0563l.4047 1.1031c.011.0383.0362.071.0705.0913s.075.0268.1139.0181c.1016 0 1.0625-.625 2.6453-.625.625 0 1.1032.1109 1.4344.3687.5625.4375.4782 1.2953.4782 1.6532-.7485-.0469-2.986-.5375-4.5954.5875-.3669.2516-.6643.5917-.8648.9888-.2005.3972-.2975.8385-.2821 1.2831 0 .9218.236 1.625 1.0297 2.2421 1.9125 1.2751 5.6688.3126 5.9532.2204.2469-.05.5515-.1032.5515-.2938v-5.2938c.0063-.7203.05-3.3812-3.5593-3.3812zm7.2735-3.2782c.0016-.0246-.0021-.0493-.0108-.0724s-.0222-.0441-.0396-.0615c-.0175-.0175-.0385-.031-.0616-.0397s-.0478-.0123-.0724-.0107h-1.5344c-.0245-.0014-.049.0024-.0719.0112s-.0437.0224-.061.0398c-.0172.0174-.0306.0383-.0392.0613s-.0123.0475-.0107.072v12.3439c-.0016.0244.0021.049.0107.072s.022.0439.0392.0613c.0173.0174.0381.031.061.0398s.0474.0126.0719.0112h1.5438c.0246.0016.0493-.002.0724-.0107s.0441-.0222.0615-.0397c.0175-.0175.031-.0384.0397-.0615s.0124-.0478.0108-.0724zm8.711 4.5204c-.3282-.361-1.061-1.1766-2.7579-1.1766-.5484 0-2.2125.0359-3.2343 1.3969-.9922 1.1922-1.0282 2.8297-1.0282 3.3453 0 .4875.0235 2.2282 1.1032 3.3078.4125.4547 1.4156 1.286 3.564 1.286 1.6907 0 2.5735-.3672 2.9032-.5875.0734-.0375.1109-.1109.0375-.2938l-.3672-1.0672c-.0189-.0405-.0509-.0734-.091-.0933-.04-.0199-.0856-.0255-.1293-.016-.4047.1468-.9922.4406-2.3891.4406-2.7219 0-2.6328-2.3031-2.6469-2.6094h5.8079c.0424-.0009.0833-.0158.1164-.0423.033-.0266.0564-.0633.0664-.1046-.0453 0 .3234-2.2969-.9516-3.7859zm5.7328 8.2328c2.0578 0 3.3453-1.1031 3.3453-2.8297 0-1.8375-1.8281-2.3703-2.7937-2.6828-.6469-.2594-2.0953-.5281-2.0953-1.3969 0-.5875.514-.9922 1.3234-.9922.9088.0183 1.8015.2444 2.6094.661 0 0 .1844.1109.2578-.0735.0359-.1093.3672-1.0281.4031-1.139.014-.0438.0104-.0912-.01-.1324-.0204-.0411-.056-.0727-.0993-.088-1.236-.7656-2.6157-.7718-3.161-.7718-1.875 0-3.1969 1.139-3.1969 2.7562 0 1.9469 1.7938 2.4125 2.7922 2.6829.9547.3125 2.0578.5093 2.0578 1.3593 0 .625-.55 1.1032-1.4328 1.1032-1.0706-.0023-2.1119-.3503-2.9687-.9922-.0222-.0191-.0493-.0315-.0782-.0359s-.0585-.0006-.0854.0109c-.0268.0116-.0499.0304-.0666.0545-.0166.024-.0262.0522-.0277.0814l-.3671 1.175c-.0735.1469.0359.1844.0359.2203.2687.2188 1.6141 1.0297 3.5609 1.0297zm10.2579-9.0406c0-.111-.0375-.1844-.1844-.1844h-1.8375c0-.0219.1469-1.3969.6984-1.9485.65-.6484 1.8376-.2562 1.875-.2562.1829.0734.2204 0 .2563-.0735l.4422-1.214c.1094-.1469 0-.1828-.0375-.2203-.7953-.3125-2.711-.4485-3.8219.6625-.8563.8562-1.0938 2.175-1.25 3.05h-1.3235c-.0474.0039-.0918.0247-.1253.0585-.0336.0338-.0539.0784-.0575.1259l-.2218 1.2125c0 .1093.0375.1828.1843.1828h1.286c-1.3297 7.4844-1.3672 7.8453-1.6172 8.675-.1688.5657-.5141 1.0782-.9188 1.2125-.014 0-.6062.2625-1.5062-.0375 0 0-.1469-.0734-.2203.111-.0375.1109-.4047 1.0656-.4422 1.1765-.0375.111 0 .2203.0734.2203.7984.3125 2.0313.2766 2.7938 0 .9812-.3562 1.5187-1.2328 1.8015-2.0218.4297-1.2047.4391-1.5297 1.8375-9.3345h1.911c.0476-.0039.0922-.0246.126-.0583.0338-.0338.0545-.0784.0584-.126zm8.3422 2.5c-.0875-.2625-.7969-2.8297-3.9328-2.8297-2.3828 0-3.5938 1.5625-3.9313 2.8297-.1562.4687-.4969 2.1875 0 3.675.0141.0469.6891 2.8313 3.9313 2.8313 2.3359 0 3.5781-1.5016 3.9328-2.8313.5016-1.5016.1578-3.2063 0-3.675zm7.0938-2.6094c-.7812-.2578-2.5969-.2969-3.4547.8453v-.6984c.0014-.0245-.0025-.0491-.0113-.072s-.0223-.0437-.0398-.0609c-.0174-.0173-.0383-.0307-.0613-.0393-.0229-.0086-.0475-.0122-.072-.0107h-1.4687c-.0245-.0015-.0491.0021-.0721.0107-.0229.0086-.0438.022-.0613.0393-.0174.0172-.031.038-.0398.0609s-.0126.0475-.0112.072v8.6375c-.0014.0246.0025.0491.0113.0721.0087.023.0223.0439.0397.0613s.0383.0309.0612.0397c.023.0088.0476.0126.0722.0113h1.5062c.0246.0013.0492-.0025.0722-.0113.0229-.0088.0438-.0223.0612-.0397s.0309-.0383.0397-.0613.0127-.0475.0113-.0721v-4.3391c0-.4547.0078-1.7766.6969-2.3516.7656-.7656 1.875-.525 2.0953-.4781.0469-.0008.0926-.0151.1317-.0411.039-.0261.0698-.0628.0886-.1058.1834-.407.343-.8244.4781-1.25.0155-.0395.0167-.0832.0032-.1234-.0134-.0403-.0405-.0746-.0766-.0969zm7.3141 8.4531-.3312-1.139c-.0735-.1844-.2204-.111-.2204-.111-.6609.2844-1.5859.2954-1.764.2954-.725 0-2.6829-.1766-2.6829-3.0876 0-.9734.2891-3.0875 2.5735-3.0875.6102-.0155 1.2187.0716 1.8.2578 0 0 .1469.0735.1844-.1109.1468-.4047.2562-.6984.4047-1.1766.0359-.1468-.0735-.1828-.111-.1828-1.8109-.6047-3.4906-.3953-4.3375 0-.2484.1156-2.5359 1.0141-2.5359 4.3 0 .4532-.0907 4.7048 4.5219 4.7048.8282-.0017 1.6495-.1514 2.425-.4422.0336-.025.0586-.0596.0718-.0994.0131-.0397.0137-.0825.0016-.1225zm8.4172-6.175c-.125-.4687-.839-2.5359-3.4922-2.5359-2.5 0-3.675 1.5797-4.0062 2.9047-.1803.5955-.2673 1.2153-.2579 1.8375 0 4.0422 2.9438 4.5938 4.6688 4.5938 1.6906 0 2.5719-.3672 2.9032-.5875.0734-.0375.1109-.111.0375-.2938l-.3688-1.0672c-.0188-.0405-.0509-.0734-.091-.0933-.04-.0199-.0856-.0256-.1293-.0161-.4047.1469-.9922.4407-2.3891.4407-2.7219 0-2.6328-2.3032-2.6453-2.6094h5.8063c.0425-.0011.0835-.016.1168-.0425s.057-.0632.0675-.1044c-.0375-.0016.1469-1.1047-.2203-2.4281zm-3.639-.9922c-1.6141 0-2.0313 1.4063-2.1313 2.2063h4.1203c-.1375-1.8625-1.1906-2.2078-1.989-2.2078z" fill="#fff"/></svg>

<svg width="100" height="71" viewBox="0 0 100 71" fill="none" xmlns="http://www.w3.org/2000/svg">
<path d="M38.8887 33.3814H34.7715C34.8793 32.5752 35.2903 31.1752 36.9028 31.1752C37.9575 31.1752 38.7731 31.772 38.8887 33.3814ZM60.242 31.2127C60.1685 31.2127 58.0373 30.9361 58.0373 34.3377C58.0373 37.7393 60.167 37.4627 60.242 37.4627C62.2732 37.4627 62.4467 35.3471 62.4467 34.3377C62.4467 30.9377 60.3123 31.2127 60.242 31.2127ZM22.2387 34.9252C22.0674 35.0595 21.9312 35.2332 21.8417 35.4316C21.7522 35.6299 21.712 35.847 21.7246 36.0643C21.7246 36.8111 22.0496 37.0096 22.2387 37.1658C22.973 37.7439 24.5934 37.4971 25.509 37.3143V34.6674C24.6777 34.5002 22.8949 34.3611 22.2387 34.9252ZM100 31.2502C100 44.9346 87.4999 55.3737 74.1624 52.5675C71.292 57.7237 63.1107 63.6222 53.506 59.0722C47.0747 74.0801 25.7106 73.4754 20.098 58.2644C1.39167 61.9972 -7.84275 36.6439 8.33702 27.1267C2.90731 14.7157 11.8745 0 26.1981 0C29.1767 0.00184997 32.1151 0.68914 34.7855 2.00867C37.456 3.32819 39.787 5.24456 41.5981 7.60941C44.8325 4.26565 49.3169 2.17032 54.2779 2.17032C60.8936 2.17032 66.6217 5.84534 69.7155 11.3219C84.2187 4.96565 100 15.7329 100 31.2502ZM18.8199 36.2189C18.8199 34.3814 16.9933 33.8486 16.0277 33.5361C15.2042 33.2064 13.9324 32.9877 13.9324 32.1392C13.9324 30.6611 16.5886 31.0986 17.8652 31.808C17.8652 31.808 18.048 31.9189 18.1214 31.7345C18.1589 31.6252 18.4902 30.7064 18.5261 30.5955C18.5401 30.5517 18.5365 30.5043 18.5161 30.4631C18.4957 30.422 18.4601 30.3904 18.4168 30.3752C16.4902 29.183 12.0574 29.0455 12.0574 32.3595C12.0574 34.3064 13.8527 34.7721 14.8511 35.0424C15.5886 35.2892 16.9089 35.5111 16.9089 36.4018C16.9089 37.0268 16.3574 37.5049 15.4761 37.5049C14.4054 37.5031 13.364 37.155 12.5074 36.5127C12.4339 36.4768 12.2855 36.4018 12.2495 36.6236L11.8745 37.7908C11.8011 37.9377 11.9105 37.9752 11.9105 38.0111C12.1839 38.2299 13.5199 39.0408 15.4761 39.0408C17.5339 39.0408 18.8199 37.9377 18.8199 36.2111V36.2189ZM23.8199 29.5658C22.2371 29.5658 20.9043 30.0611 20.4761 30.3752C20.459 30.387 20.4444 30.4022 20.4333 30.4197C20.4221 30.4373 20.4145 30.4569 20.411 30.4774C20.4075 30.4979 20.4082 30.519 20.4129 30.5392C20.4177 30.5595 20.4264 30.5786 20.4386 30.5955L20.8433 31.6986C20.8543 31.7369 20.8795 31.7696 20.9138 31.7899C20.9481 31.8102 20.9888 31.8167 21.0277 31.808C21.1293 31.808 22.0902 31.183 23.673 31.183C24.298 31.183 24.7762 31.2939 25.1074 31.5517C25.6699 31.9892 25.5856 32.847 25.5856 33.2049C24.8371 33.158 22.5996 32.6674 20.9902 33.7924C20.6233 34.044 20.3259 34.3841 20.1254 34.7812C19.9249 35.1784 19.8279 35.6197 19.8433 36.0643C19.8433 36.9861 20.0793 37.6893 20.873 38.3064C22.7855 39.5815 26.5418 38.619 26.8262 38.5268C27.0731 38.4768 27.3777 38.4236 27.3777 38.233V32.9392C27.384 32.2189 27.4277 29.558 23.8184 29.558L23.8199 29.5658ZM31.0934 26.2876C31.095 26.263 31.0913 26.2383 31.0826 26.2152C31.0739 26.1921 31.0604 26.1711 31.043 26.1537C31.0255 26.1362 31.0045 26.1227 30.9814 26.114C30.9583 26.1053 30.9336 26.1017 30.909 26.1033H29.3746C29.3501 26.1019 29.3256 26.1057 29.3027 26.1145C29.2798 26.1233 29.259 26.1369 29.2417 26.1543C29.2245 26.1717 29.2111 26.1926 29.2025 26.2156C29.1939 26.2386 29.1902 26.2631 29.1918 26.2876V38.6315C29.1902 38.6559 29.1939 38.6805 29.2025 38.7035C29.2111 38.7265 29.2245 38.7474 29.2417 38.7648C29.259 38.7822 29.2798 38.7958 29.3027 38.8046C29.3256 38.8134 29.3501 38.8172 29.3746 38.8158H30.9184C30.943 38.8174 30.9677 38.8138 30.9908 38.8051C31.0139 38.7964 31.0349 38.7829 31.0523 38.7654C31.0698 38.7479 31.0833 38.727 31.092 38.7039C31.1007 38.6808 31.1044 38.6561 31.1028 38.6315L31.0934 26.2876ZM39.8044 30.808C39.4762 30.447 38.7434 29.6314 37.0465 29.6314C36.4981 29.6314 34.834 29.6673 33.8122 31.0283C32.82 32.2205 32.784 33.858 32.784 34.3736C32.784 34.8611 32.8075 36.6018 33.8872 37.6814C34.2997 38.1361 35.3028 38.9674 37.4512 38.9674C39.1419 38.9674 40.0247 38.6002 40.3544 38.3799C40.4278 38.3424 40.4653 38.269 40.3919 38.0861L40.0247 37.0189C40.0058 36.9784 39.9738 36.9455 39.9337 36.9256C39.8937 36.9057 39.8481 36.9001 39.8044 36.9096C39.3997 37.0564 38.8122 37.3502 37.4153 37.3502C34.6934 37.3502 34.7825 35.0471 34.7684 34.7408H40.5763C40.6187 34.7399 40.6596 34.725 40.6927 34.6985C40.7257 34.6719 40.7491 34.6352 40.7591 34.5939C40.7138 34.5939 41.0825 32.297 39.8075 30.808H39.8044ZM45.5372 39.0408C47.595 39.0408 48.8825 37.9377 48.8825 36.2111C48.8825 34.3736 47.0544 33.8408 46.0888 33.5283C45.4419 33.2689 43.9935 33.0002 43.9935 32.1314C43.9935 31.5439 44.5075 31.1392 45.3169 31.1392C46.2257 31.1575 47.1184 31.3836 47.9263 31.8002C47.9263 31.8002 48.1107 31.9111 48.1841 31.7267C48.22 31.6174 48.5513 30.6986 48.5872 30.5877C48.6012 30.5439 48.5976 30.4965 48.5772 30.4553C48.5568 30.4142 48.5212 30.3826 48.4779 30.3673C47.2419 29.6017 45.8622 29.5955 45.3169 29.5955C43.4419 29.5955 42.12 30.7345 42.12 32.3517C42.12 34.2986 43.9138 34.7642 44.9122 35.0346C45.8669 35.3471 46.97 35.5439 46.97 36.3939C46.97 37.0189 46.42 37.4971 45.5372 37.4971C44.4666 37.4948 43.4253 37.1468 42.5685 36.5049C42.5463 36.4858 42.5192 36.4734 42.4903 36.469C42.4614 36.4646 42.4318 36.4684 42.4049 36.4799C42.3781 36.4915 42.355 36.5103 42.3383 36.5344C42.3217 36.5584 42.3121 36.5866 42.3106 36.6158L41.9435 37.7908C41.87 37.9377 41.9794 37.9752 41.9794 38.0111C42.2481 38.2299 43.5935 39.0408 45.5403 39.0408H45.5372ZM55.7951 30.0002C55.7951 29.8892 55.7576 29.8158 55.6107 29.8158H53.7732C53.7732 29.7939 53.9201 28.4189 54.4716 27.8673C55.1216 27.2189 56.3092 27.6111 56.3466 27.6111C56.5295 27.6845 56.567 27.6111 56.6029 27.5376L57.0451 26.3236C57.1545 26.1767 57.0451 26.1408 57.0076 26.1033C56.2123 25.7908 54.2966 25.6548 53.1857 26.7658C52.3294 27.622 52.0919 28.9408 51.9357 29.8158H50.6122C50.5648 29.8197 50.5204 29.8405 50.4869 29.8743C50.4533 29.9081 50.433 29.9527 50.4294 30.0002L50.2076 31.2127C50.2076 31.322 50.2451 31.3955 50.3919 31.3955H51.6779C50.3482 38.8799 50.3107 39.2408 50.0607 40.0705C49.8919 40.6362 49.5466 41.1487 49.1419 41.283C49.1279 41.283 48.5357 41.5455 47.6357 41.2455C47.6357 41.2455 47.4888 41.1721 47.4154 41.3565C47.3779 41.4674 47.0107 42.4221 46.9732 42.533C46.9357 42.644 46.9732 42.7533 47.0466 42.7533C47.845 43.0658 49.0779 43.0299 49.8404 42.7533C50.8216 42.3971 51.3591 41.5205 51.6419 40.7315C52.0716 39.5268 52.081 39.2018 53.4794 31.397H55.3904C55.438 31.3931 55.4826 31.3724 55.5164 31.3387C55.5502 31.3049 55.5709 31.2603 55.5748 31.2127L55.7951 30.0002ZM64.1373 32.5002C64.0498 32.2377 63.3404 29.6705 60.2045 29.6705C57.8217 29.6705 56.6107 31.233 56.2732 32.5002C56.117 32.9689 55.7763 34.6877 56.2732 36.1752C56.2873 36.2221 56.9623 39.0065 60.2045 39.0065C62.5404 39.0065 63.7826 37.5049 64.1373 36.1752C64.6389 34.6736 64.2951 32.9689 64.1373 32.5002ZM71.2311 29.8908C70.4499 29.633 68.6342 29.5939 67.7764 30.7361V30.0377C67.7778 30.0132 67.7739 29.9886 67.7651 29.9657C67.7563 29.9428 67.7428 29.922 67.7253 29.9048C67.7079 29.8875 67.687 29.8741 67.664 29.8655C67.6411 29.8569 67.6165 29.8533 67.592 29.8548H66.1233C66.0988 29.8533 66.0742 29.8569 66.0512 29.8655C66.0283 29.8741 66.0074 29.8875 65.9899 29.9048C65.9725 29.922 65.9589 29.9428 65.9501 29.9657C65.9413 29.9886 65.9375 30.0132 65.9389 30.0377V38.6752C65.9375 38.6998 65.9414 38.7243 65.9502 38.7473C65.9589 38.7703 65.9725 38.7912 65.9899 38.8086C66.0073 38.826 66.0282 38.8395 66.0511 38.8483C66.0741 38.8571 66.0987 38.8609 66.1233 38.8596H67.6295C67.6541 38.8609 67.6787 38.8571 67.7017 38.8483C67.7246 38.8395 67.7455 38.826 67.7629 38.8086C67.7803 38.7912 67.7938 38.7703 67.8026 38.7473C67.8114 38.7243 67.8153 38.6998 67.8139 38.6752V34.3361C67.8139 33.8814 67.8217 32.5595 68.5108 31.9845C69.2764 31.2189 70.3858 31.4595 70.6061 31.5064C70.653 31.5056 70.6987 31.4913 70.7378 31.4653C70.7768 31.4392 70.8076 31.4025 70.8264 31.3595C71.0098 30.9525 71.1694 30.5351 71.3045 30.1095C71.32 30.07 71.3212 30.0263 71.3077 29.9861C71.2943 29.9458 71.2672 29.9115 71.2311 29.8892V29.8908ZM78.5452 38.3439L78.214 37.2049C78.1405 37.0205 77.9936 37.0939 77.9936 37.0939C77.3327 37.3783 76.4077 37.3893 76.2296 37.3893C75.5046 37.3893 73.5467 37.2127 73.5467 34.3017C73.5467 33.3283 73.8358 31.2142 76.1202 31.2142C76.7304 31.1987 77.3389 31.2858 77.9202 31.472C77.9202 31.472 78.0671 31.5455 78.1046 31.3611C78.2514 30.9564 78.3608 30.6627 78.5093 30.1845C78.5452 30.0377 78.4358 30.0017 78.3983 30.0017C76.5874 29.397 74.9077 29.6064 74.0608 30.0017C73.8124 30.1173 71.5249 31.0158 71.5249 34.3017C71.5249 34.7549 71.4342 39.0065 76.0468 39.0065C76.875 39.0048 77.6963 38.8551 78.4718 38.5643C78.5054 38.5393 78.5304 38.5047 78.5436 38.4649C78.5567 38.4252 78.5573 38.3824 78.5452 38.3424V38.3439ZM86.9624 32.1689C86.8374 31.7002 86.1234 29.633 83.4702 29.633C80.9702 29.633 79.7952 31.2127 79.464 32.5377C79.2837 33.1332 79.1967 33.753 79.2061 34.3752C79.2061 38.4174 82.1499 38.969 83.8749 38.969C85.5655 38.969 86.4468 38.6018 86.7781 38.3815C86.8515 38.344 86.889 38.2705 86.8156 38.0877L86.4468 37.0205C86.428 36.98 86.3959 36.9471 86.3558 36.9272C86.3158 36.9073 86.2702 36.9016 86.2265 36.9111C85.8218 37.058 85.2343 37.3518 83.8374 37.3518C81.1155 37.3518 81.2046 35.0486 81.1921 34.7424H86.9984C87.0409 34.7413 87.0819 34.7264 87.1152 34.6999C87.1485 34.6734 87.1722 34.6367 87.1827 34.5955C87.1452 34.5939 87.3296 33.4908 86.9624 32.1674V32.1689ZM83.3234 31.1767C81.7093 31.1767 81.2921 32.583 81.1921 33.383H85.3124C85.1749 31.5205 84.1218 31.1752 83.3234 31.1752V31.1767Z" fill="white"/>
</svg>
